fs/building_skyscraper_16_filled.svg

<svg viewBox="0 0 16 16" fill="none" xmlns="http://www.w3.org/2000/svg" height="1em" width="1em">
  <path d="M6.75 1H6.25C6.11193 1 6 1.11193 6 1.25V2H7V1.25C7 1.11193 6.88807 1 6.75 1ZM8.5 3H4.5C4.22386 3 4 3.22386 4 3.5V4H9V3.5C9 3.22386 8.77614 3 8.5 3ZM11.5 12C11.7761 12 12 11.7761 12 11.5C12 11.2239 11.7761 11 11.5 11C11.2239 11 11 11.2239 11 11.5C11 11.7761 11.2239 12 11.5 12ZM12 9.5C12 9.77614 11.7761 10 11.5 10C11.2239 10 11 9.77614 11 9.5C11 9.22386 11.2239 9 11.5 9C11.7761 9 12 9.22386 12 9.5ZM3 6.45C3 5.83652 3.32495 5.29895 3.81213 5H9.18787C9.67505 5.29895 10 5.83652 10 6.45V6.5H10.3C12.3435 6.5 14 8.15655 14 10.2V13.5C14 13.7761 13.7761 14 13.5 14H7V11.9C7 11.6791 6.82091 11.5 6.6 11.5H6.4C6.17909 11.5 6 11.6791 6 11.9V14H3.5C3.22386 14 3 13.7761 3 13.5V6.45ZM13 10.2C13 8.70883 11.7912 7.5 10.3 7.5H10V13H13V10.2ZM6 7.5C6 7.22386 5.77614 7 5.5 7C5.22386 7 5 7.22386 5 7.5C5 7.77614 5.22386 8 5.5 8C5.77614 8 6 7.77614 6 7.5ZM7.5 8C7.77614 8 8 7.77614 8 7.5C8 7.22386 7.77614 7 7.5 7C7.22386 7 7 7.22386 7 7.5C7 7.77614 7.22386 8 7.5 8ZM6 9.5C6 9.22386 5.77614 9 5.5 9C5.22386 9 5 9.22386 5 9.5C5 9.77614 5.22386 10 5.5 10C5.77614 10 6 9.77614 6 9.5ZM7.5 10C7.77614 10 8 9.77614 8 9.5C8 9.22386 7.77614 9 7.5 9C7.22386 9 7 9.22386 7 9.5C7 9.77614 7.22386 10 7.5 10Z" fill="#212121"/>
</svg>

<svg viewBox="0 0 16 16" fill="none" xmlns="http://www.w3.org/2000/svg" height="1em" width="1em">
  <path d="M6.75 1h-.5a.25.25 0 0 0-.25.25V2h1v-.75A.25.25 0 0 0 6.75 1ZM8.5 3h-4a.5.5 0 0 0-.5.5V4h5v-.5a.5.5 0 0 0-.5-.5Zm3 9a.5.5 0 1 0 0-1 .5.5 0 0 0 0 1Zm.5-2.5a.5.5 0 1 1-1 0 .5.5 0 0 1 1 0ZM3 6.45A1.7 1.7 0 0 1 3.812 5h5.376A1.7 1.7 0 0 1 10 6.45v.05h.3a3.7 3.7 0 0 1 3.7 3.7v3.3a.5.5 0 0 1-.5.5H7v-2.1a.4.4 0 0 0-.4-.4h-.2a.4.4 0 0 0-.4.4V14H3.5a.5.5 0 0 1-.5-.5V6.45Zm10 3.75a2.7 2.7 0 0 0-2.7-2.7H10V13h3v-2.8ZM6 7.5a.5.5 0 1 0-1 0 .5.5 0 0 0 1 0Zm1.5.5a.5.5 0 1 0 0-1 .5.5 0 0 0 0 1ZM6 9.5a.5.5 0 1 0-1 0 .5.5 0 0 0 1 0Zm1.5.5a.5.5 0 1 0 0-1 .5.5 0 0 0 0 1Z" fill="#212121"/>
</svg>
